web/packages/design/src/ResourceIcon/assets/eks.svg

<svg width="72" height="72" viewBox="0 0 72 72" fill="none" xmlns="http://www.w3.org/2000/svg">
<g clip-path="url(#clip0_6706_29487)">
<mask id="mask0_6706_29487" style="mask-type:luminance" maskUnits="userSpaceOnUse" x="29" y="24" width="17" height="22">
<path d="M29.1719 24.715H32.1281V33.4343L40.6407 24.715H44.5433L35.2028 34.3217L45.1338 45.4067H41.3508L32.1282 35.0611V45.4067H29.1721L29.1719 24.715Z" fill="white"/>
</mask>
<g mask="url(#mask0_6706_29487)">
<path d="M29.1719 24.715H32.1281V33.4343L40.6407 24.715H44.5433L35.2028 34.3217L45.1338 45.4067H41.3508L32.1282 35.0611V45.4067H29.1721V24.7149" fill="url(#paint0_linear_6706_29487)"/>
</g>
<mask id="mask1_6706_29487" style="mask-type:luminance" maskUnits="userSpaceOnUse" x="38" y="0" width="30" height="51">
<path d="M38.4326 16.5033L52.9916 24.9088C53.1135 24.9795 53.2147 25.0809 53.2851 25.2029C53.3555 25.3249 53.3926 25.4633 53.3927 25.6042V42.4156C53.3927 42.7022 53.5468 42.9674 53.7948 43.1109L66.7871 50.6124C67.3225 50.9218 67.9917 50.5341 67.9917 49.9171V17.1748C67.9917 16.8882 67.8387 16.6233 67.5913 16.4796L39.2369 0.108929C38.7014 -0.200066 38.0312 0.187267 38.0312 0.805256V15.808C38.0312 16.0953 38.1846 16.3595 38.4334 16.5033H38.4326Z" fill="white"/>
</mask>
<g mask="url(#mask1_6706_29487)">
<path d="M38.4326 16.5033L52.9916 24.9088C53.1135 24.9795 53.2147 25.0809 53.2851 25.2029C53.3555 25.3249 53.3926 25.4633 53.3927 25.6042V42.4156C53.3927 42.7022 53.5468 42.9674 53.7948 43.1109L66.7871 50.6124C67.3225 50.9218 67.9917 50.5341 67.9917 49.9171V17.1748C67.9917 16.8882 67.8387 16.6233 67.5913 16.4796L39.2369 0.108929C38.7014 -0.200066 38.0312 0.187267 38.0312 0.805256V15.808C38.0312 16.0953 38.1846 16.3595 38.4334 16.5033" fill="url(#paint1_linear_6706_29487)"/>
</g>
<mask id="mask2_6706_29487" style="mask-type:luminance" maskUnits="userSpaceOnUse" x="4" y="-1" width="62" height="73">
<path d="M50.9597 46.629L36.4007 55.0346C36.1527 55.1784 35.8458 55.1784 35.5977 55.0346L19.0072 45.4561C18.8851 45.3854 18.7837 45.2838 18.7131 45.1616C18.6425 45.0394 18.6053 44.9009 18.6051 44.7598V25.6023C18.6054 25.4614 18.6427 25.3229 18.7133 25.2009C18.7838 25.0789 18.8852 24.9775 19.0073 24.907L33.5663 16.502C33.6884 16.4316 33.7899 16.3304 33.8604 16.2084C33.9309 16.0864 33.9681 15.948 33.9682 15.807V0.804085C33.9682 0.186096 33.2984 -0.200363 32.7629 0.107765L4.4082 16.4793C4.15996 16.6231 4.00781 16.888 4.00781 17.1746V53.1895C4.00781 53.4767 4.16083 53.741 4.4082 53.8858L35.5977 71.8921C35.8457 72.036 36.1526 72.036 36.4007 71.8921L64.7553 55.522C65.2908 55.2126 65.2908 54.4398 64.7553 54.1307L51.7631 46.629C51.5139 46.4853 51.2079 46.4853 50.9597 46.629Z" fill="white"/>
</mask>
<g mask="url(#mask2_6706_29487)">
<path d="M50.9597 46.629L36.4007 55.0346C36.1527 55.1784 35.8458 55.1784 35.5977 55.0346L19.0072 45.4561C18.8851 45.3854 18.7837 45.2838 18.7131 45.1616C18.6425 45.0394 18.6053 44.9009 18.6051 44.7598V25.6023C18.6054 25.4614 18.6427 25.3229 18.7133 25.2009C18.7838 25.0789 18.8852 24.9775 19.0073 24.907L33.5663 16.502C33.6884 16.4316 33.7898 16.3304 33.8604 16.2084C33.9309 16.0864 33.9681 15.948 33.9682 15.807V0.804092C33.9682 0.186104 33.2984 -0.200363 32.7629 0.107765L4.4082 16.4794C4.15996 16.6231 4.00781 16.888 4.00781 17.1746V53.1895C4.00781 53.4767 4.16083 53.741 4.4082 53.8858L35.5977 71.8921C35.8457 72.036 36.1526 72.036 36.4007 71.8921L64.7553 55.522C65.2908 55.2127 65.2908 54.4398 64.7553 54.1307L51.7631 46.629C51.5139 46.4853 51.2079 46.4853 50.9597 46.629Z" fill="url(#paint2_linear_6706_29487)"/>
</g>
</g>
<defs>
<linearGradient id="paint0_linear_6706_29487" x1="42.8139" y1="44.8748" x2="30.1142" y2="23.9491" gradientUnits="userSpaceOnUse">
<stop stop-color="#4F66B9"/>
<stop offset="1" stop-color="#484FAB"/>
</linearGradient>
<linearGradient id="paint1_linear_6706_29487" x1="71.1604" y1="47.8197" x2="42.3727" y2="-1.74721" gradientUnits="userSpaceOnUse">
<stop stop-color="#4F66B9"/>
<stop offset="1" stop-color="#484FAB"/>
</linearGradient>
<linearGradient id="paint2_linear_6706_29487" x1="42.5466" y1="68.0684" x2="11.158" y2="12.6514" gradientUnits="userSpaceOnUse">
<stop stop-color="#4C68BB"/>
<stop offset="1" stop-color="#5180C9"/>
</linearGradient>
<clipPath id="clip0_6706_29487">
<rect width="72" height="72" fill="white"/>
</clipPath>
</defs>
</svg>

<svg xmlns="http://www.w3.org/2000/svg" width="72" height="72" fill="none" viewBox="0 0 72 72"><g clip-path="url(#clip0_6706_29487)"><mask id="mask0_6706_29487" width="17" height="22" x="29" y="24" maskUnits="userSpaceOnUse" style="mask-type:luminance"><path fill="#fff" d="M29.172 24.715h2.956v8.72l8.513-8.72h3.902l-9.34 9.607 9.93 11.085h-3.782L32.128 35.06v10.346h-2.956z"/></mask><g mask="url(#mask0_6706_29487)"><path fill="url(#paint0_linear_6706_29487)" d="M29.172 24.715h2.956v8.72l8.513-8.72h3.902l-9.34 9.607 9.93 11.085h-3.782L32.128 35.06v10.346h-2.956z"/></g><mask id="mask1_6706_29487" width="30" height="51" x="38" y="0" maskUnits="userSpaceOnUse" style="mask-type:luminance"><path fill="#fff" d="m38.433 16.503 14.559 8.406a.8.8 0 0 1 .4.695v16.812c0 .286.155.551.403.695l12.992 7.501a.803.803 0 0 0 1.205-.695V17.175a.8.8 0 0 0-.4-.695L39.236.109a.804.804 0 0 0-1.206.696v15.003c0 .287.154.552.402.695"/></mask><g mask="url(#mask1_6706_29487)"><path fill="url(#paint1_linear_6706_29487)" d="m38.433 16.503 14.559 8.406a.8.8 0 0 1 .4.695v16.812c0 .286.155.551.403.695l12.992 7.501a.803.803 0 0 0 1.205-.695V17.175a.8.8 0 0 0-.4-.695L39.236.109a.804.804 0 0 0-1.206.696v15.003c0 .287.154.552.402.695"/></g><mask id="mask2_6706_29487" width="62" height="73" x="4" y="-1" maskUnits="userSpaceOnUse" style="mask-type:luminance"><path fill="#fff" d="M50.96 46.629 36.4 55.035a.8.8 0 0 1-.802 0l-16.59-9.579a.8.8 0 0 1-.403-.696V25.602a.8.8 0 0 1 .402-.695l14.56-8.405a.8.8 0 0 0 .401-.695V.804a.804.804 0 0 0-1.205-.696L4.408 16.479a.8.8 0 0 0-.4.696V53.19c0 .287.153.551.4.696l31.19 18.006a.8.8 0 0 0 .803 0l28.354-16.37a.803.803 0 0 0 0-1.391l-12.992-7.502a.8.8 0 0 0-.803 0"/></mask><g mask="url(#mask2_6706_29487)"><path fill="url(#paint2_linear_6706_29487)" d="M50.96 46.629 36.4 55.035a.8.8 0 0 1-.802 0l-16.59-9.579a.8.8 0 0 1-.403-.696V25.602a.8.8 0 0 1 .402-.695l14.56-8.405a.8.8 0 0 0 .401-.695V.804a.804.804 0 0 0-1.205-.696L4.408 16.479a.8.8 0 0 0-.4.696V53.19c0 .287.153.551.4.696l31.19 18.006a.8.8 0 0 0 .803 0l28.354-16.37a.803.803 0 0 0 0-1.391l-12.992-7.502a.8.8 0 0 0-.803 0"/></g></g><defs><linearGradient id="paint0_linear_6706_29487" x1="42.814" x2="30.114" y1="44.875" y2="23.949" gradientUnits="userSpaceOnUse"><stop stop-color="#4f66b9"/><stop offset="1" stop-color="#484fab"/></linearGradient><linearGradient id="paint1_linear_6706_29487" x1="71.16" x2="42.373" y1="47.82" y2="-1.747" gradientUnits="userSpaceOnUse"><stop stop-color="#4f66b9"/><stop offset="1" stop-color="#484fab"/></linearGradient><linearGradient id="paint2_linear_6706_29487" x1="42.547" x2="11.158" y1="68.068" y2="12.651" gradientUnits="userSpaceOnUse"><stop stop-color="#4c68bb"/><stop offset="1" stop-color="#5180c9"/></linearGradient><clipPath id="clip0_6706_29487"><path fill="#fff" d="M0 0h72v72H0z"/></clipPath></defs></svg>
